icons/outdoortoolbox.svg

<?xml version="1.0" encoding="utf-8"?>
<!-- Generator: Adobe Illustrator 25.1.0, SVG Export Plug-In . SVG Version: 6.00 Build 0)  -->
<svg version="1.1"
	 id="svg8" inkscape:version="1.0.1 (3bc2e813f5, 2020-09-07)" sodipodi:docname="template.svg" xmlns:cc="http://creativecommons.org/ns#" xmlns:dc="http://purl.org/dc/elements/1.1/" xmlns:inkscape="http://www.inkscape.org/namespaces/inkscape" xmlns:rdf="http://www.w3.org/1999/02/22-rdf-syntax-ns#" xmlns:sodipodi="http://sodipodi.sourceforge.net/DTD/sodipodi-0.dtd" xmlns:svg="http://www.w3.org/2000/svg"
	 xmlns="http://www.w3.org/2000/svg" xmlns:xlink="http://www.w3.org/1999/xlink" x="0px" y="0px" viewBox="0 0 48 48"
	 style="enable-background:new 0 0 48 48;" xml:space="preserve">
<style type="text/css">
	.st0{fill:none;stroke:#FFFFFF;stroke-linecap:round;stroke-linejoin:round;}
</style>
<sodipodi:namedview  bordercolor="#666666" borderopacity="1" gridtolerance="10" guidetolerance="10" id="namedview10" inkscape:current-layer="svg8" inkscape:cx="85.710122" inkscape:cy="27.68027" inkscape:document-rotation="0" inkscape:guide-bbox="true" inkscape:pageopacity="0" inkscape:pageshadow="2" inkscape:window-height="2098" inkscape:window-maximized="1" inkscape:window-width="3840" inkscape:window-x="0" inkscape:window-y="25" inkscape:zoom="2.3321796" objecttolerance="10" pagecolor="#595959" showgrid="false" showguides="true">
	</sodipodi:namedview>
<g>
	<path id="path9985" class="st0" d="M14.1,10.4h3.2V6.8h13v3.4v0.2h3.3"/>
	<path id="path9987" sodipodi:nodetypes="ccccccc" class="st0" d="M4.5,21h39v-6.5c0-0.9-0.3-1.6-1-1.7H5.3c-1,0.2-0.8,0.9-0.8,1.5
		L4.5,21z"/>
	<path id="path9989" sodipodi:nodetypes="ccccccccccccccccccccccc" class="st0" d="M5.3,24.5l4.9,0v4.9h7.4v-4.9h12.9v4.8h7.2v-4.8
		h4.7v13c0,0.9-0.7,1.5-1.9,1.5h-4.1v2.2h-5.2V39H16.6v2h-5.4v-2.1H7c-1.3,0-2-0.6-2-1.4L5.3,24.5z"/>
</g>
</svg>

<svg xmlns="http://www.w3.org/2000/svg" viewBox="0 0 48 48"><defs><style>.a{fill:none;stroke:#fff;stroke-linecap:round;stroke-linejoin:round;}</style></defs><path class="a" d="M14.1,10.4h3.2V6.8h13v3.6h3.3"/><path class="a" d="M4.5,21h39V14.5c0-.9-.3-1.6-1-1.7H5.3c-1,.2-.8.9-.8,1.5Z"/><path class="a" d="M5.3,24.5h4.9v4.9h7.4V24.5H30.5v4.8h7.2V24.5h4.7v13c0,.9-.7,1.5-1.9,1.5H36.4v2.2H31.2V39H16.6v2H11.2V38.9H7c-1.3,0-2-.6-2-1.4Z"/></svg>
